app/assets/images/heroicons/solid/h3.svg

<svg width="24" height="24" viewBox="0 0 24 24" fill="none" xmlns="http://www.w3.org/2000/svg">
<path fill-rule="evenodd" clip-rule="evenodd" d="M12.7488 3.74316C13.163 3.74316 13.4988 4.07897 13.4988 4.4932V19.4946C13.4988 19.9089 13.163 20.2447 12.7488 20.2447C12.3346 20.2447 11.9988 19.9089 11.9988 19.4946V12.7447H2.99711V19.4954C2.99711 19.9096 2.66132 20.2454 2.24709 20.2454C1.83287 20.2454 1.49707 19.9096 1.49707 19.4954V4.49393C1.49707 4.07969 1.83287 3.74389 2.24709 3.74389C2.66132 3.74389 2.99711 4.07969 2.99711 4.49393V11.2446H11.9988V4.4932C11.9988 4.07897 12.3346 3.74316 12.7488 3.74316Z" fill="black"/>
<path fill-rule="evenodd" clip-rule="evenodd" d="M18.7499 10.5007C18.0226 10.5007 17.3086 10.5551 16.6114 10.66C16.2018 10.7216 15.8198 10.4395 15.7582 10.0299C15.6966 9.62026 15.9787 9.23825 16.3883 9.17663C17.1591 9.06069 17.9477 9.00066 18.7499 9.00066C19.2412 9.00066 19.7275 9.02318 20.2078 9.06729C21.1589 9.15464 22.1344 9.77225 22.3756 10.8606C22.4571 11.2283 22.4999 11.61 22.4999 12.0007C22.4999 12.9561 22.2441 13.8533 21.7974 14.6258C22.2441 15.3983 22.4999 16.2955 22.4999 17.2509C22.4999 17.6416 22.4571 18.0233 22.3756 18.391C22.1344 19.4793 21.1589 20.0969 20.2078 20.1843C19.7275 20.2284 19.2412 20.2509 18.7499 20.2509C17.9477 20.2509 17.1591 20.1909 16.3883 20.075C15.9787 20.0133 15.6966 19.6313 15.7582 19.2217C15.8198 18.8121 16.2018 18.53 16.6114 18.5916C17.3086 18.6965 18.0226 18.7509 18.7499 18.7509C19.1954 18.7509 19.6359 18.7305 20.0706 18.6906C20.538 18.6476 20.8441 18.369 20.9111 18.0665C20.9691 17.8046 20.9999 17.5318 20.9999 17.2509C20.9999 16.5669 20.8174 15.9271 20.4984 15.3758H17.9999C17.5857 15.3758 17.2499 15.04 17.2499 14.6258C17.2499 14.2116 17.5857 13.8758 17.9999 13.8758H20.4984C20.8174 13.3245 20.9999 12.6847 20.9999 12.0007C20.9999 11.7198 20.9691 11.447 20.9111 11.1851C20.8441 10.8826 20.538 10.604 20.0706 10.561C19.6359 10.5211 19.1954 10.5007 18.7499 10.5007Z" fill="black"/>
</svg>

<svg xmlns="http://www.w3.org/2000/svg" viewBox="0 0 24 24" fill="currentColor" aria-hidden="true" data-slot="icon">
  <path fill-rule="evenodd" d="M12.749 3.743a.75.75 0 0 1 .75.75v15.002a.75.75 0 1 1-1.5 0v-6.75H2.997v6.75a.75.75 0 0 1-1.5 0V4.494a.75.75 0 1 1 1.5 0v6.75H12v-6.75a.75.75 0 0 1 .75-.75ZM18.75 10.5c-.727 0-1.441.055-2.139.16a.75.75 0 1 1-.223-1.483 15.87 15.87 0 0 1 3.82-.11c.95.088 1.926.705 2.168 1.794a5.265 5.265 0 0 1-.579 3.765 5.265 5.265 0 0 1 .578 3.765c-.24 1.088-1.216 1.706-2.167 1.793a15.942 15.942 0 0 1-3.82-.109.75.75 0 0 1 .223-1.483 14.366 14.366 0 0 0 3.46.099c.467-.043.773-.322.84-.624a3.768 3.768 0 0 0-.413-2.691H18a.75.75 0 0 1 0-1.5h2.498a3.768 3.768 0 0 0 .413-2.69c-.067-.303-.373-.582-.84-.625-.435-.04-.876-.06-1.321-.06Z" clip-rule="evenodd"/>
</svg>
